packages/core/src/svgs/pleb.svg

<svg width="24" height="24" viewBox="0 0 24 24" fill="none" xmlns="http://www.w3.org/2000/svg">
<g clip-path="url(#clip0_31_16077)">
<path d="M0 0H24V24H0V0Z" fill="#F0F3FA"/>
<path d="M18.18 12.8741L16.4872 10.3884L12.5229 7.56836L5.57146 8.16836C5.24575 8.54122 4.6886 9.71122 5.08289 11.3826C5.57146 13.4741 8.90575 13.4141 9.88289 13.6198C10.6715 13.7869 11.6829 14.5455 12.09 14.9055L11.8886 16.1269L17.3657 15.9426L18.18 12.8741Z" fill="#D38054"/>
<path d="M12.0085 9.80547C11.7942 9.5569 10.9799 9.39833 10.5985 9.35119C10.1699 9.27833 9.16704 9.4969 9.12847 10.1569C9.08561 10.8212 10.6628 11.2155 11.2542 11.3183C11.8456 11.4212 12.3556 11.134 12.3556 10.9069C12.3556 10.6755 12.2742 10.1183 12.0128 9.80547H12.0085ZM4.83847 10.7183C4.7099 9.93833 5.10847 9.01261 5.32704 8.64404C5.4299 8.69547 5.65704 8.87119 5.75561 9.18404C5.85418 9.50119 5.67418 10.1055 5.57132 10.3669C5.38275 10.8083 4.97132 11.4983 4.83847 10.7183Z" fill="white"/>
<path d="M10.2942 11.0916C10.6658 11.0916 10.9671 10.7846 10.9671 10.4059C10.9671 10.0272 10.6658 9.72021 10.2942 9.72021C9.92259 9.72021 9.62134 10.0272 9.62134 10.4059C9.62134 10.7846 9.92259 11.0916 10.2942 11.0916Z" fill="black"/>
<path d="M5.06152 8.37871V8.62728C5.25867 8.94014 5.67438 8.70014 5.85867 8.54157C5.77295 8.64443 5.62724 8.85443 5.75581 8.85443C5.91867 8.85443 6.30867 8.39585 6.47152 8.233C6.20581 8.62728 6.02152 9.06014 6.14581 9.06014C6.24438 9.06014 6.49724 8.743 6.61724 8.58443C6.50581 8.78585 6.35152 9.18443 6.61724 9.18443C6.94295 9.18443 7.45295 8.54157 7.57724 8.39585C7.41009 8.76871 7.31152 9.39443 7.59438 9.39443C7.82581 9.39443 8.05724 8.82443 8.15152 8.54157C8.13438 8.88443 8.14295 9.55728 8.28867 9.55728C8.43867 9.55728 8.59724 9.27014 8.65724 9.12443C8.67867 9.23157 8.75581 9.45443 8.90581 9.45443C9.05152 9.45443 9.24867 8.73442 9.33438 8.37871C9.33867 8.69585 9.41581 9.33014 9.6601 9.33014C9.90438 9.33014 10.1144 8.503 10.1915 8.08728C10.213 8.413 10.2944 9.06014 10.4572 9.06014C10.6201 9.06014 10.7444 8.25871 10.783 7.86014C10.7958 8.25871 10.8601 9.06014 11.0101 9.06014C11.1558 9.06014 11.3444 8.64443 11.4172 8.43871C11.503 8.73871 11.7044 9.33014 11.8672 9.33014C12.073 9.33014 12.253 8.68728 12.3172 8.54157C12.3387 9.76728 12.5015 9.973 12.6858 9.973C12.8315 9.973 13.0287 9.40728 13.1144 9.12443C13.0844 9.57871 13.093 10.4916 13.3372 10.4916C13.5815 10.4916 13.7658 10.0501 13.8301 9.82728C13.8472 10.153 13.9372 10.8001 14.1344 10.8001C14.3315 10.8001 14.3787 10.2473 14.3787 9.973C14.443 10.2473 14.6058 10.8001 14.7687 10.8001C14.9315 10.8001 15.0258 10.543 15.0558 10.4101C15.1115 10.573 15.2872 10.9073 15.5658 10.9073C15.8444 10.9073 15.7501 10.4101 15.6687 10.1573C15.8401 10.3373 16.2087 10.6973 16.3201 10.6973C16.4658 10.6973 16.4872 10.5516 16.4872 10.4059C16.4872 9.57871 13.9501 6.42871 10.2515 6.42871C6.55295 6.42871 5.06152 8.16871 5.06152 8.37871Z" fill="#3B1900"/>
<path d="M6.71146 11.3488C6.78432 11.323 6.86575 11.3616 6.89146 11.4388C6.92575 11.533 7.00289 11.6873 7.12717 11.833C7.24717 11.9788 7.41003 12.103 7.60717 12.1545C7.90717 12.2273 8.15575 12.2659 8.3786 12.2059C8.59717 12.1459 8.82003 11.983 9.04289 11.5802C9.08575 11.5116 9.17146 11.4859 9.24003 11.5245C9.3086 11.5673 9.33432 11.653 9.29575 11.7216C9.04717 12.1716 8.7686 12.3988 8.45575 12.4845C8.15146 12.5702 7.8386 12.5059 7.54289 12.433C7.29383 12.3676 7.07183 12.2251 6.9086 12.0259C6.7586 11.8502 6.66432 11.6616 6.62146 11.533C6.60915 11.4967 6.6117 11.4569 6.62855 11.4224C6.6454 11.3879 6.6752 11.3614 6.71146 11.3488Z" fill="black"/>
<path d="M12.0085 15.197C11.7256 15.5613 11.1085 16.337 10.9285 16.4998C11.0356 16.9498 11.4213 17.957 12.0899 18.407C16.7185 18.5227 19.0456 14.7127 19.6328 12.7927L18.0385 12.1284C17.9956 12.1884 17.897 12.5098 17.8156 13.2856C17.2585 15.2784 15.0556 15.6941 13.6842 15.6941C12.5913 15.6941 12.1113 15.3598 12.0128 15.197H12.0085Z" fill="#7E661C"/>
<path d="M12.0899 18.4285C11.9454 17.6828 11.5829 16.9967 11.0485 16.457C10.727 16.8685 10.0627 17.7642 9.94702 18.0985C10.9885 18.3856 11.9484 18.4285 12.0899 18.4285Z" fill="#D38054"/>
<path d="M19.7144 12.3344L19.6115 12.793C19.2686 12.6858 18.4715 12.4801 18.0815 12.4801C18.0815 12.6687 18.0386 15.8401 13.8901 15.8401C13.0929 15.8401 12.5829 15.7973 12.0901 15.403C11.7858 15.7158 10.5386 17.083 10.0501 18.1158L9.63864 17.9915C10.3158 17.083 11.6915 15.1973 11.8072 14.9487C11.7215 14.803 11.0915 14.1601 9.8015 13.9115C9.6215 13.8773 9.39436 13.8473 9.12864 13.813C7.52578 13.6115 4.71436 13.2601 4.71436 10.4273C4.71436 9.33011 4.92007 8.79011 5.0615 8.6444C5.20293 8.50297 5.9015 8.21154 5.9615 9.66011C5.9615 10.2258 5.45578 10.8773 5.20293 11.1344C5.28007 11.6915 5.88864 12.8787 7.74007 13.1444C7.95436 13.1658 8.16007 13.1873 8.3615 13.2001C9.06436 13.2558 9.69864 13.3115 10.3329 13.5987C11.1515 13.9715 12.2572 14.7387 12.2572 14.9487C12.2572 15.1115 12.2015 15.1801 12.1715 15.1973C12.3001 15.3258 12.7586 15.5873 13.6244 15.5873C14.7086 15.5873 17.5886 15.133 17.7515 12.793C17.7515 12.5444 16.7315 10.9501 16.2215 10.1787H16.4658L18.0172 12.0044C18.3601 12.0387 19.1744 12.1544 19.7144 12.3344ZM5.38721 8.81154C5.08853 9.45957 4.97008 10.1761 5.04436 10.8858C5.22007 10.6715 5.45578 10.3673 5.55436 10.243C5.48578 10.2087 5.34864 10.0587 5.34864 9.74582C5.34864 9.42868 5.56293 9.28297 5.67436 9.24868C5.6315 9.15868 5.52007 8.94868 5.38721 8.81154Z" fill="black"/>
<path d="M9.23155 10.1442C9.34298 10.5213 9.73726 10.7956 10.2087 10.9799C10.6801 11.1599 11.1944 11.2371 11.4773 11.2371C11.7601 11.2371 11.9744 11.1771 12.1073 11.0956C12.2444 11.0099 12.2958 10.9113 12.2958 10.8213C12.2958 10.5213 12.2058 10.1785 11.953 9.90848C11.6958 9.63848 11.2673 9.43705 10.5601 9.43705C9.99441 9.43705 9.66012 9.56562 9.47155 9.71991C9.28726 9.86991 9.23155 10.0371 9.23155 10.1442ZM9.34298 9.56134C9.57869 9.36848 9.96441 9.22705 10.5601 9.22705C11.3058 9.22705 11.7944 9.44134 12.0944 9.76277C12.3944 10.0799 12.5015 10.4828 12.5015 10.8213C12.5015 11.0056 12.3901 11.1642 12.2144 11.2713C12.0387 11.3785 11.7858 11.4428 11.4773 11.4428C11.1687 11.4428 10.633 11.3656 10.1358 11.1728C9.64726 10.9842 9.16726 10.6713 9.03012 10.1871V10.1613C9.02155 9.98991 9.10726 9.74991 9.34298 9.56134Z" fill="black"/>
</g>
<defs>
<clipPath id="clip0_31_16077">
<rect width="24" height="24" fill="white"/>
</clipPath>
</defs>
</svg>

<svg xmlns="http://www.w3.org/2000/svg" width="24" height="24" fill="none" viewBox="0 0 24 24"><g clip-path="url(#a)"><path fill="#F0F3FA" d="M0 0h24v24H0z"/><path fill="#D38054" d="m18.18 12.874-1.693-2.486-3.964-2.82-6.952.6c-.325.373-.882 1.543-.488 3.215.488 2.091 3.823 2.031 4.8 2.237.789.167 1.8.926 2.207 1.286l-.201 1.22 5.477-.183z"/><path fill="#fff" d="M12.009 9.805c-.215-.248-1.03-.407-1.41-.454-.43-.073-1.432.146-1.47.806-.043.664 1.534 1.059 2.125 1.161.592.103 1.102-.184 1.102-.411 0-.232-.082-.789-.343-1.102zm-7.17.913c-.13-.78.27-1.705.488-2.074.103.051.33.227.429.54.098.317-.082.922-.185 1.183-.188.441-.6 1.131-.733.351"/><path fill="#000" d="M10.294 11.092a.68.68 0 0 0 .673-.686.68.68 0 0 0-.673-.686.68.68 0 0 0-.673.686.68.68 0 0 0 .673.686"/><path fill="#3B1900" d="M5.062 8.379v.248c.197.313.612.073.797-.085-.086.102-.232.312-.103.312.163 0 .553-.458.716-.621-.266.394-.45.827-.326.827.098 0 .351-.317.471-.476-.111.202-.265.6 0 .6.326 0 .836-.642.96-.788-.167.373-.265.998.017.998.232 0 .463-.57.558-.852-.018.342-.009 1.015.137 1.015.15 0 .308-.287.368-.433.022.108.099.33.249.33.146 0 .343-.72.428-1.075.005.317.082.951.326.951s.454-.827.531-1.243c.022.326.103.973.266.973s.287-.801.326-1.2c.013.399.077 1.2.227 1.2.146 0 .334-.416.407-.621.086.3.287.891.45.891.206 0 .386-.643.45-.788.022 1.225.184 1.431.369 1.431.146 0 .343-.566.428-.849-.03.455-.021 1.368.223 1.368.245 0 .429-.442.493-.665.017.326.107.973.304.973s.245-.553.245-.827c.064.274.227.827.39.827.162 0 .257-.257.287-.39.056.163.231.497.51.497.278 0 .184-.497.103-.75.171.18.54.54.651.54.146 0 .167-.145.167-.291 0-.827-2.537-3.977-6.235-3.977-3.7 0-5.19 1.74-5.19 1.95"/><path fill="#000" d="M6.711 11.349a.14.14 0 0 1 .18.09c.035.094.112.248.236.394a.94.94 0 0 0 .48.322c.3.072.549.11.772.05.218-.06.441-.222.664-.625a.15.15 0 0 1 .197-.056.15.15 0 0 1 .056.198c-.249.45-.527.677-.84.763-.305.085-.617.02-.913-.052a1.22 1.22 0 0 1-.634-.407 1.6 1.6 0 0 1-.288-.493.146.146 0 0 1 .09-.184"/><path fill="#7E661C" d="M12.009 15.197c-.283.364-.9 1.14-1.08 1.303.107.45.492 1.457 1.16 1.907 4.63.116 6.957-3.694 7.544-5.614l-1.594-.665c-.043.06-.142.382-.223 1.158-.557 1.992-2.76 2.408-4.132 2.408-1.093 0-1.573-.334-1.671-.497z"/><path fill="#D38054" d="M12.09 18.429a3.84 3.84 0 0 0-1.041-1.972c-.322.412-.986 1.307-1.102 1.642a9.6 9.6 0 0 0 2.143.33"/><path fill="#000" d="m19.714 12.334-.102.459c-.343-.107-1.14-.313-1.53-.313 0 .189-.043 3.36-4.192 3.36-.797 0-1.307-.043-1.8-.437-.304.313-1.551 1.68-2.04 2.713l-.411-.125c.677-.908 2.053-2.794 2.168-3.042-.085-.146-.716-.789-2.005-1.037-.18-.035-.408-.065-.673-.099-1.603-.202-4.415-.553-4.415-3.386 0-1.097.206-1.637.347-1.783.142-.141.84-.432.9 1.016 0 .566-.505 1.217-.758 1.474.077.557.686 1.745 2.537 2.01q.32.035.621.056c.703.056 1.338.112 1.972.399.819.373 1.924 1.14 1.924 1.35 0 .162-.056.231-.085.248.128.129.587.39 1.452.39 1.085 0 3.965-.454 4.127-2.794 0-.249-1.02-1.843-1.53-2.614h.245l1.551 1.825c.343.035 1.157.15 1.697.33M5.387 8.812a3.97 3.97 0 0 0-.343 2.074c.176-.214.412-.519.51-.643-.068-.034-.205-.184-.205-.497 0-.317.214-.463.325-.497-.043-.09-.154-.3-.287-.437"/><path fill="#000" d="M9.232 10.144c.111.377.505.652.977.836.471.18.985.257 1.268.257s.497-.06.63-.141c.137-.086.189-.185.189-.275 0-.3-.09-.643-.343-.913-.257-.27-.686-.471-1.393-.471-.566 0-.9.129-1.088.283-.185.15-.24.317-.24.424m.111-.583c.236-.193.621-.334 1.217-.334.746 0 1.234.214 1.534.536.3.317.408.72.408 1.058 0 .185-.112.343-.288.45-.175.107-.428.172-.737.172a4.1 4.1 0 0 1-1.341-.27c-.489-.189-.969-.502-1.106-.986v-.026c-.008-.171.077-.411.313-.6"/></g><defs><clipPath id="a"><path fill="#fff" d="M0 0h24v24H0z"/></clipPath></defs></svg>
